X: 21361
M: 3/4
L: 1/8
K: Bb
fdf |\
d2 BBGB | F2 DBAB | cd/e/ dfGe | d2 c fdf |\
d2 BBGB | F2 D c=Bc | c>BAffc | d3 dc=E |\
|: fff |\
f2 dfge | f2 dfge |\
f>d Bfed | d2 c fdf | d2 BBGB | F2 D BAB |\
cd/e/ dBcd | e3 gfA | Bc/d/ f/e/d/c/ BA | B3 |]


